X:1
T:Title
%%score { ( 1 3 ) | ( 2 4 ) }
L:1/8
Q:1/4=108
M:4/4
K:Ab
V:1 treble nm="Grand Piano"
V:3 treble 
V:2 bass 
V:4 bass 
V:1
 [Ec]4 [DB]2 [CA]2 | [CE]4 [CEA]4 | [Ec]4 [EB]2 [A,EA]2 | [A,DF]4 [DFB]4 | [Fd]4 [Fc]2 [FB]2 | %5
w: Robert~Lowry * *|||||
 A2 G2 A2 B2 | c4 B2 A2 | B8 | c4 d2 c2 | z4 B4 | A4 B2 A2 | [FA]4 [=EG]4 | %12
w: |||||||
 [A,F]4 [A,FA]2 [A,DF]2 | z4 [EA]2 z2 | [Ec]4 [DB]4 | [CA]8 |] %16
w: ||||
V:2
 [A,,A,]4 [A,,A,]2 [A,,A,]2 | [A,,A,]4 A,,4 | [A,,A,]4 [C,G,]2 C,2 | D,4 B,,4 | %4
 [B,,B,]4 [C,=A,]2 [D,B,]2 | E4 z4 | z4 [G,E]2 z2 | [E,G,E]8 | [A,E]4 [A,F]2[K:bass] [A,E]2 | %9
 z4 E2 z2 | [F,A,C]4 [F,DF]2 [F,CF]2 | z4 C2 z2 | D,4 D,2 D,2 | z2 C2 C,2 D,2 | [E,A,]4 [E,G,]4 | %15
 [A,,A,]8 |] %16
V:3
 x8 | x8 | x8 | x8 | x8 | z4 E4 | x8 | x8 | x8 | c4 z2 D2 | x8 | x8 | x8 | %13
 [A,CE]2 [EA]2 A,2- [A,FB]2 | x8 | x8 |] %16
V:4
 x8 | x8 | x8 | x8 | x8 | [E,C]2 [D,B,]2 [C,A,]2 [E,G,]2 | [A,E]4 B,2- [F,B,=D]2 | x8 | %8
 x6[K:bass] x2 | [E,A,E]4 [E,G,]4 | x8 | [C,C]4 C,2- [C,B,]2 | x8 | A,,4 z4 | x8 | x8 |] %16

